X: 28162
T: Mrs Malaprop
R: jig
M: 6/8
K: Amajor
|:EE/E/E EFA|c2a fec|f3 f2e|fag fec|
EE/E/E EFA|c2a fec|faf fec|BB/B/B cAF:|
|:A2a a2e|fec BAB|c2a aga|fba gfe|
~c2a a2e|fec BAB|c2a fec|BB/B/B cAF:|

